svg/ionicons/wifi-outline.svg

<svg xmlns="http://www.w3.org/2000/svg" width="512" height="512" viewBox="0 0 512 512"><g fill="currentColor" stroke="#000" stroke-linecap="round" stroke-linejoin="round" stroke-width="32"><path d="M318.586 363.5 256 424l-62.586-60.5S212 336 256 336s62.586 27.5 62.586 27.5M407.31 278 372 312s-41-46-116-46-116 46-116 46l-35.31-34S142.5 214 256 214s151.31 64 151.31 64"/><path d="m496 192-36.69 35.5S386.5 141 256 141 52.69 227.5 52.69 227.5L16 192S88 88 256 88s240 104 240 104"/></g></svg>

<svg width="512" height="512" viewBox="0 0 512 512" fill="none" xmlns="http://www.w3.org/2000/svg">
<path d="M318.586 363.5L256 424L193.414 363.5C193.414 363.5 212 336 256 336C300 336 318.586 363.5 318.586 363.5Z" stroke="black" stroke-width="32" stroke-linecap="round" stroke-linejoin="round"/>
<path d="M407.31 278L372 312C372 312 331 266 256 266C181 266 140 312 140 312L104.69 278C104.69 278 142.5 214 256 214C369.5 214 407.31 278 407.31 278Z" stroke="black" stroke-width="32" stroke-linecap="round" stroke-linejoin="round"/>
<path d="M496 192L459.31 227.5C459.31 227.5 386.5 141 256 141C125.5 141 52.6897 227.5 52.6897 227.5L16 192C16 192 88 88 256 88C424 88 496 192 496 192Z" stroke="black" stroke-width="32" stroke-linecap="round" stroke-linejoin="round"/>
</svg>
